X: 35709
T: Saint Joseph's
R: reel
M: 4/4
K: Dmajor
|:defd cdec|defd A2A2|B2gf edcB|A2a2 agfe|
defd cdec|defd A2A2|B2gf edcB|Acec d4:|
|:f2fg fedc|B2G2 g2g2|e2ef edcB|A2a2 agfe|
f2fg fedc|B2G2 g2g2|e2ef edcB|Acec d2d2:|

